!!!!SEGMENT: pl-wnifc--6439-n--010_anonim--mazur-no-10.krn
!!!cenid: 18xx:3953
!!!COM: Anonim
!!!COM-rismID: pe30004985
!!!CDT:
!!!CNT:
!!!OTL: Mazur No. 10
!!!PDT: 1827
!!!AGN:
!!!SMS-siglum: PL-Wnifc
!!!SMS-shelfmark: 6439/n
!!!SMS-shelfwork: 010 W
!!!SMS-variant:
!!!SMS-altvar:
!!!NIFC-rismSourceID: 1001011241
!!!NIFC-islandoraID: nifc:212734
!!!URL-pdf-islandora: https://repozytorium.nifc.pl/islandora/object/nifc:212734/datastream/PDF/view
!!!URL-scan: https://polish.musicsources.pl/pl/lokalizacje/galeria/druki-muzyczne/16857 @EN{Scan on Polish Music Sources Website} @PL{Skany w portalu Dziedzictwo Muzyki Polskiej w otwartym dostępie}
!!!ONB-nifc: str. 8 (skan 0005)
!!!AIN: 2 piano
!!!key: D
**kern	**kern
*part2	*part1
*staff2	*staff1
*I"Pianoforte	*I"Pianoforte
*I'Pf	*I'Pf
*Ipiano	*Ipiano
*ICklav	*ICklav
*clefF4	*clefG2
*k[f#c#]	*k[f#c#]
*D:	*D:
*M3/8	*M3/8
=1	=1
!	!LO:TX:a:Bi:t=Mazur.\nNo 10.
*tremolo	*
8DD/L 8D	8d:\ 8f#: 8a: 8dd:
8DD/ 8D	8d/L 8f# 8a
8DD/J 8D	8d/J 8f# 8a
=2	=2
*	*tremolo
8DD/L 8D	8d/L 8f# 8a
8DD/ 8D	8d/ 8f# 8a
8DD/J 8D	8d/J 8f# 8a
=3||	=3||
.	8qee/
8DD/ 8D	16dd\LL
.	16cc#\JJ
*Xtremolo	*
8D\L 8F# 8A	8dd\L
8D\J 8F# 8A	8ff#\J
=4	=4
8DD/ 8D	4aa\
8D\L 8F# 8A	.
8D\J 8F# 8A	(32aa\LLL
.	32gg\
.	32ff#\
.	32ee\JJJ)
=5	=5
.	8qee/
8DD/ 8D	16dd\LL
.	16cc#\J
8D\L 8F# 8A	8dd\
8D\J 8F# 8A	8ff#\J
=6	=6
8AAA/ 8AA	16a\LL
.	16b\
8AA\L 8E 8G	16ccn\
.	16cc#X\
8AA\J 8E 8G	16dd\
.	16dd#X\JJ
=7	=7
.	8qff#/
8AAA/ 8AA	16ee\LL
.	16dd#X\J
8AA\L 8E 8G	8ee\
8AA\J 8E 8G	8gg\J
=8	=8
!	!LO:TUP:a
8DD/ 8D	(24bb\LL
.	24ccc#\
.	24bb\JJ)
8D\L 8F# 8A	16aa\LL
.	16gg\
8D\J 8F# 8A	16ff#\
.	16ee\JJ
=9	=9
8AAA/ 8AA	16dd\LL
.	16cc#\
8AA\L 8E 8G	16aa\
.	16gg#X\
8AA\J 8E 8G	16ggn\
.	16cc#\JJ
=10	=10
8D\ 8F#	16ee\LL
.	16dd\JJ
4DD/ 4D	4dd\
*	*Xtremolo
=11:|!|:	=11:|!|:
.	8qbb/
8DD/ 8D	16aa\LL
.	16gg#X\J
8D\L 8F# 8A	8aa\
8D\J 8F# 8A	8ddd\J
=12	=12
.	8qbb/
8DD/ 8D	16aa\LL
.	16gg#X\J
8D\L 8F# 8A	8aa\
8D\J 8F# 8A	8ddd\J
=13	=13
8AAA/ 8AA	16ccc#\LL
.	16ddd\
8AA\L 8E 8G	16eee\
.	16aa\
8AA\J 8E 8G	16bb\
.	16ccc#\JJ
=14	=14
8DD/ 8D	16.ddd\LL
.	32eee\JJk
8D\L 8F# 8A	4fff#\
8D\J 8F# 8A	.
=15	=15
!	!LO:TUP:a
8DD/ 8D	(24ddd\LL
.	24fff#\
.	24ddd\JJ)
8D\L 8F# 8A	8aa\L
8D\J 8F# 8A	8aa\J
=16	=16
!	!LO:TUP:a
8GG/ 8G	(24bb\LL
.	24ddd\
.	24bb\JJ)
8G\L 8B 8e	8ee\L 8gg
8G\J 8B 8e	8dd\J 8ff#
=17	=17
8AA/ 8A	16ee\LL
.	16dd\
8A\L 8e 8g	16cc#\
.	16bb\
8A\J 8e 8g	16aa\
.	16cc#\JJ
=18	=18
8d\ 8f#	16ee\LL
.	16dd\JJ
4D\ 4d	4dd\
=19:|!|:	=19:|!|:
8DD/ 8D	16.ff#\LL
.	32gg\K
8A\L 8d 8f#	16.ff#\
.	32ee\K
8A\J 8d 8f#	16dd\
.	16cc#\JJ
=20	=20
8DD/ 8D	8.f#\L 8.dd
8A\L 8d 8f#	.
.	16cc#\K 16ee
8A\J 8d 8f#	8dd\J 8ff#
=21	=21
8AAA/ 8AA	16.ee\LL
.	(32ff#\K
8A\L 8c# 8e	16.ee\)
.	(32dd\K
8A\J 8c# 8e	16.cc#\)
.	32b\JJk
=22	=22
8AAA/ 8AA	16.a\LL 16.cc#
.	32b\JJk 32dd
8A\L 8c# 8e	8.cc#\L 8.ee
8A\J 8c# 8e	.
.	16a\Jk 16cc#
=23	=23
8EE/ 8E	16dd\LL
.	16b\
8E\L 8B 8d	16gg#X\
.	16ee\
8E\J 8B 8d	16bb\
.	16aa\JJ
=24	=24
8EE/ 8E	16gg#X\LL
.	16ff#\
8E\L 8B 8d	16ee\
.	16ddd\
8E\J 8B 8d	16ccc#\
.	16bb\JJ
=25	=25
8AA\ 8A	16.aa\LL
.	32bb\K
8E\L 8A 8c#	16ccc#\
.	16ee\
8E\J 8B 8d	16ff#\
.	16gg#X\JJ
=26	=26
4A\ 4c#	(16bb\LL
.	16aa\
!	!LO:TX:a:t=i.
.	16gg#X\
.	16aa\
8A\ 8c# 8e	16ggn\
.	16ee\JJ)
=27	=27
8A\ 8c#	(16bb\LL
!	!LO:TX:a:t=2.
.	16aa\JJ
4AA/	4aa\)
=:|=	=:|=
*-	*-
!!!system-decoration: [(s1,s2)]
!!!ENC: Solarz Mateusz
!!!END: 2022-07-28
!!!ENC: Julita Ruszuk
!!!END: 2022-08-25
!!!YEC: Copyright 2022 Narodowy Instytut Fryderyka Chopina (https://polishscores.org)
!!!YEM: Licence CC BY 4.0 (https://creativecommons.org/licenses/by/4.0)
